X: 1
T:Martin Wynne's
M:C|
L:1/8
C:Martin Wynne
R:reel
K:Bm
F2AF E2FE|D~B,3 DB,A,2|B,~E3 FEDE|FABc dcBA|
!FBAF E2FE|D~B,3 DB,A,2|B,~E3 FEDE|FBBA ~B3A:|
!|:F2BF A2FA|B/2c/2d eg fdde|~f2af egfe|dfed BAFE|
!FBAF A2FA|B/2c/2d eg fdde|~f2af egfe|dBAF ~B3A:|
